X:1
T:An Bertha, Op.15
T:Wie lieb ich dich hab' ("How fondly I love")
T:2. Wie lieb ich dich hab' (How fondly I love) 
T:Peter Cornelius (trans. Constance Bache) 
T:An Bertha, Op.15
T:Peter Cornelius
T:OpenScore (CC0) 
T:OpenScore (CC0) 
T:OpenScore (CC0) 
C:Peter Cornelius
Z:Peter Cornelius
Z:OpenScore (CC0)
Z:
%%score 1 { ( 2 3 6 ) | ( 4 5 ) }
L:1/8
Q:1/4=116
M:6/8
K:F
V:1 treble nm="Gesang\nVoice"
V:2 treble nm="Pianoforte"
V:3 treble 
V:6 treble 
V:4 bass 
V:5 bass 
V:1
"^Allegretto con moto" z | z6 | z2 z z2 c | f e A d c A | F A =B c3 | z2 f f e G | B G f f e G | %7
w: ||Und|sän- gen die Vö- gel dir|laut mei- ne Lieb',|Ein Wört- chen doch|heim- lich im Her- zen noch|
w: ||O|could the birds war- ble of|my love for thee,|One word in my|heart still un- spo- ken would|
 A2 g g f _e | _e d d f3- | f c B A2 z | z6 | z2 z z2 c | f e A d c A | F G F E3 | z2 ^f f e A | %15
w: blieb, ein Wört- chen doch|heim- lich im Her-|* zen noch blieb.||Und|könnt' ich mit Per- len um-|hül- len dich ganz,|Sie könn- ten's nicht|
w: be, One word in my|heart still un- spo-|* ken would be.||And|could I with jew- els en-|cir- cle thee quite,|Not e'en all their|
 ^G =B ^f f e ^c | A2 ^f f e d | d =B =c c _e d | d3- d2 z | z2 z z2 c | f e A d c A | F E F G2 z | %22
w: sa- gen mit all' ih- rem|Glanz, Sie könn- ten's nicht|sa- gen mit all' ih- rem|Glanz. _|Und|streu- ten's die Ro- sen im|Duft vor dich hin,|
w: splen- dour could tell it a-|right, Not e'en all their|splen- dour could tell it a-|right. _|And|could the sweet ro- ses but|breathe it to thee,|
 z2 e e d F | E G e e d A | F2 d d c B | B A F A3- | A G E F2 z | z6 | z2 z z2 C | F G c F G C | %30
w: Sie wüss- ten's doch|halb nur, wie gut ich dir|bin, Sie wüss- ten's doch|halb nur, wie gut|_ ich dir bin.||Und|rausch- ten's die Quel- len, und|
w: They know but in|part what thou art un- to|me, They know but in|part what thou art|_ un- to me.||And|could the brook's mur- mur or|
 F G c G2 G | A =B e A B E | A =B e B2 B | =B ^c ^d ^f c ^A | ^e ^d =B ^G2 ^F | %35
w: braust' es der Wind, Und|fän- den das Wort sie, das|nim- mer ich find', Ja,|sän- gen's die Ster- ne vom|Him- mel her- ab, Sie|
w: blus- ter- ing wind, E'er|car- ry the one word my|tongue can- not find, Yea,|could the stars sing it from|hea- ven a- bove, Not|
 ^F ^E ^G F A z/ F/ | ^F ^E ^G F2 A | A ^G d d c A | f6- | f3- f A G | F2 z z2 z | %41
w: könn- ten's nicht sin- gen, wie|lieb ich dich hab', Sie|könn- ten's nicht sin- gen, wie|lieb|_ _ ich dich|hab'.|
w: e- ven their sing- ing could|tell half my love, Not|e- ven their sing- ing could|tell|_ _ half my|love.|
[Q:1/4=106] z6[Q:1/4=100][Q:1/4=94] | z6 |] %43
w: ||
w: ||
V:2
!mf! C | (DEA EFG) | (Acf) c2!p! [EBc] | (feA dcA) | (FA=B c2) a | (agB [Bd]G) a | %6
 (agB [Bd]G) [egd'] | (d'c'b) ((([Bgb](A))[G_eg])) | ([G_eg][Fdf][FBd]) (f=ed) | %9
 ([FAd][CFA][B,EG]!mf! F2) C | DEA EFG | ([CA][CAc][FBf]) c2!p! [EBc] | (fe(A) (d)cA) | %13
 (FGF) (([=B,E]2 [E^c])) | (^c=B^G) (GA)c | (^c=B)^G ((GA)c) | (^c=BA) ([A,^FA][^G,E^G][=DGB]) | %17
 ([D^G=B][=B,DG][A,CA]) [A,CA] c2 |"_cresc." ([DAc][DA][DB]"_espress." dag) | (fed Gd!p!c) | %20
 (.f.e.A) (.d.c.A) | (.F.E.F) G2 [G_B] | ([GB][FA][EG]) ([EG][DF][FA]) | (BAG) ([EG][DF][FA]) | %24
 (AG[DF]) ([DF][CE][_B,D]) | F3 ([A,=B,F][G,B,E][F,B,D]) | %26
 (.[E,A,C].[E,_B,C].[E,G,C])!mf! (A,=B,C- | DEA EFG | [CA][CAc][FBf] c2)!mf! C | %29
 z/ [A,CF]/z/[CG]/z/[Cc]/ z/ [A,DF]/z/[CEG]/z/C/ | %30
 z/ [A,CF]/z/[CG]/z/[Cc]/ z/ [=B,FG]/z/[CEG]/z/[DG]/ | %31
 z/ [CEA]/z/[E=B]/z/[Ee]/ z/ [CA]/z/[E^GB]/z/E/ | %32
 z/ [CEA]/z/[E=B]/z/[EBe]/ z/ [=B,AB]/z/[B,^GB]/z/[B,^FB]/ | %33
!<(! =B^c^d!<)!!f! [^DBd][^C^Ac][C^FA] |"^ten." !tenuto![=B,^D^G=B]3- [B,DGB]2!p! [=D^F] | %35
 (^F^Ed) (d^c)F | (^F^Ed) (d^c)A | (A^G[=Fd=f]) f2!f! a | (ag).=B ([Af]A).a | %39
 (ag).=B ([Af]A).[G_B] | (F!<(!A,=B,- B,CD)!<)! | A6- |!mp! [A,CA]6 |] %43
V:3
 C- | C6 | C[CA][FB] C2 x | A2 F F3 | F2 F FE [ce] | [ce]2 G x2 [ce] | [ce]2 G x3 | %7
 [fa]2 [Bg] x c2 | x3 [F^G]3 | x3 A,=B,C- | C6 | x3 C2 x | AcF- F2 C | D2 x4 | ^G2 D (D^C)E | %15
 D2 D (D^C)E | ^D2 D x3 | x4 (([C_E][DA])) | x3 G2 [Gd] | [GB]2 [FB] E2 [EB] | AcF F2 C | %21
 A,2 =B, C2 x | x6 | G2 E x3 | [=B,F]2 x4 | [B,D][A,C]A, x3 | x6 | C6 | x3 C2 B, | x6 | x6 | x6 | %32
 x6 | =B,^C^D x3 | x6 | D2 ^E ^F2 ^C | D2 ^E ^F2 [^CF] | [D=F]2 x F2 [Af] | [=Bf]2 B FF[Ac] | %39
 [=Bf]2 F FF_B, | A6 | (EG!>(!F EA,-!>)!D) | x6 |] %43
V:4
 C, | D,E,A, E,F,G, | F,(C,D,) E,2 [F,C] | (F,A,D B,A,F,) | D2 G, G,2[K:treble] [CGB] | %5
 (([CGB]2 [CF])) (FE) [GB] | ([CGB]2 [CF]) (FE) [CEGB] |[K:bass] [F,_E]2 [F,E] [F,E]2 [F,A,] | %8
 [B,,B,]2 [B,,B,] [=B,,=B,]3 | C z [C,,C,] (C,=B,,C, | D,E,A, E,F,G,) | [C,F,](C,D,) E,2 C | %12
 C z z z2 F, | A,3 (A,^F,^G,) | D2 =B, A,2 A, | [E,^G,]2 [E,,E,] [A,,A,]2 [A,,A,] | %16
 [=B,,A,]2 [=B,,,=B,,] [E,,E,]2 [E,,E,] | [=F,,=F,]2 [F,,F,] [F,,F,]2 [^F,,^F,] | %18
 [^F,,^F,]2 [G,,G,] [B,,B,]2 [B,,B,] | [C,C]2 C C,2 C | C z z z2 F, | [D,F,]2 [D,F,] (F,E,) z | %22
 z2 (B, A,3) | z z B, (B,A,)A, | G,,3 C,3 | [F,,F,]3 [G,,,G,,]3 | [C,,C,]3 (C,=B,,C, | %27
 D,E,A, E,F,G, | F,C,D, E,2) E, | [F,,F,][E,,E,][A,,,A,,] [D,,D,][C,,C,][C,,C,] | %30
 [F,,F,][E,,E,][A,,,A,,] [D,,D,][C,,C,][=B,,,=B,,] | %31
 [A,,,A,,][G,,,G,,][C,,C,] [F,,F,][E,,E,][E,,E,] | [A,,A,][G,,G,][E,,E,] [F,,F,][E,,E,][D,,D,] | %33
 [^C,,^C,]2 [C,,C,] [^F,,,^F,,]2 [F,,^F,] |"^ten." !tenuto![=B,,^F,^G,]3- [B,,F,G,]2 ^G, | %35
 ^G,2 G, A,2 A, | ^G,2 G, A,2 A, | =B,2 ^G, A,2 [C,,C,] | z z (D- DCF,) | z z (D- DCE,) | %40
 (F,A,,=B,,- B,,C,D,) | (E,"_poco calando"G,F, E,A,,D,) | C,6 |] %43
V:5
 F,, | F,,6- | F,, F,,2- F,,2 x | C2 x4 | D,2 D, C,2[K:treble] x | x3 C2 C | x3 C2 x |[K:bass] x6 | %8
 x6 | C,2 x F,,3 | F,,6- | F,, F,,2- F,,2 F, | (F,A,D) B,A,F, | D,3 E,3 | E,2 E, A,,2 A,, | x6 | %16
 x6 | x6 | x6 | x6 | F,A,D B,A,F, | x3 C,2 C, | ^C,3 D,3 | ^C,2 C, D,3 | x2 G, G,3 | x6 | %26
 x3 (F,,3 | F,,6- | F,,3- F,,2) F,, | x6 | x6 | x6 | x6 | x6 | x5 =B,, | =B,,2 B,, A,,2 A,, | %36
 =B,,2 B,, A,,2 A,, | =B,,2 B,, C,2 x | [G,,,G,,]3 [C,,C,]3 | [G,,,G,,]3 [C,,C,]3 | F,,6 | %41
 !^!F,,6- | F,,6 |] %43
V:6
 x | x6 | x3 (AG) x | x6 | x6 | x6 | x6 | x6 | x6 | x6 | x6 | x3 (AG) x | x6 | x6 | x6 | x6 | x6 | %17
 x6 | x6 | x6 | x6 | x6 | x6 | x6 | x6 | x2 A, x3 | x6 | x6 | x3 (AG) x | x6 | x6 | x6 | x6 | %33
 ^E2 x4 | x6 | x6 | x6 | x3 (dc) x | x6 | x6 | A, x5 | x4 A,2 | x6 |] %43

